fs/number_symbol_square_20_filled.svg

<svg viewBox="0 0 20 20" fill="none" xmlns="http://www.w3.org/2000/svg" height="1em" width="1em">
  <path d="M11.4525 9L11.0241 11H8.54719L8.97576 9H11.4525ZM5.5 3C4.11929 3 3 4.11929 3 5.5V14.5C3 15.8807 4.11929 17 5.5 17H14.5C15.8807 17 17 15.8807 17 14.5V5.5C17 4.11929 15.8807 3 14.5 3H5.5ZM9.10487 6.0112C9.37488 6.06906 9.54686 6.33486 9.489 6.60487L9.19005 8H11.6667L12.0103 6.39539C12.0682 6.12537 12.3339 5.95336 12.604 6.01119C12.874 6.06902 13.046 6.3348 12.9882 6.60482L12.6893 8H13.5C13.7761 8 14 8.22386 14 8.5C14 8.77614 13.7761 9 13.5 9H12.4752L12.0468 11H13C13.2761 11 13.5 11.2239 13.5 11.5C13.5 11.7761 13.2761 12 13 12H11.8326L11.489 13.6043C11.4312 13.8744 11.1654 14.0464 10.8954 13.9885C10.6254 13.9307 10.4534 13.6649 10.5112 13.3949L10.8099 12H8.3329L7.989 13.6049C7.93114 13.8749 7.66535 14.0469 7.39534 13.989C7.12533 13.9311 6.95334 13.6654 7.0112 13.3953L7.3102 12H6.5C6.22386 12 6 11.7761 6 11.5C6 11.2239 6.22386 11 6.5 11H7.52449L7.95306 9H7C6.72386 9 6.5 8.77614 6.5 8.5C6.5 8.22386 6.72386 8 7 8H8.16735L8.5112 6.39534C8.56906 6.12533 8.83486 5.95334 9.10487 6.0112Z" fill="#212121"/>
</svg>

<svg viewBox="0 0 20 20" fill="none" xmlns="http://www.w3.org/2000/svg" height="1em" width="1em">
  <path d="m11.453 9-.429 2H8.547l.429-2h2.476ZM5.5 3A2.5 2.5 0 0 0 3 5.5v9A2.5 2.5 0 0 0 5.5 17h9a2.5 2.5 0 0 0 2.5-2.5v-9A2.5 2.5 0 0 0 14.5 3h-9Zm3.605 3.011a.5.5 0 0 1 .384.594L9.19 8h2.477l.343-1.605a.5.5 0 0 1 .978.21L12.69 8h.811a.5.5 0 0 1 0 1h-1.025l-.428 2H13a.5.5 0 0 1 0 1h-1.167l-.344 1.604a.5.5 0 1 1-.978-.21L10.81 12H8.333l-.344 1.605a.5.5 0 1 1-.978-.21l.3-1.395H6.5a.5.5 0 0 1 0-1h1.024l.43-2H7a.5.5 0 0 1 0-1h1.167l.344-1.605a.5.5 0 0 1 .594-.384Z" fill="#212121"/>
</svg>
